src/images/icons/dailylessons.svg

<svg viewBox="0 0 100 100" xmlns="http://www.w3.org/2000/svg" xmlns:xlink="http://www.w3.org/1999/xlink"><title>dailylessons</title><desc>Created using Figma</desc><g transform="matrix(2 0 0 2 -200 -100)"><clipPath id="a" clip-rule="evenodd"><path d="M0 0h1398v646H0V0z" fill="#FFF"/></clipPath><g clip-path="url(#a)"><path d="M0 0h1398v646H0V0z" fill="#FFF"/><g transform="translate(108 56)"><use xlink:href="#path0_fill" fill="#FFF"/><use xlink:href="#path1_stroke"/></g><g transform="translate(140 65)"><use xlink:href="#path2_fill" fill="#FFF"/><use xlink:href="#path3_stroke"/></g><g transform="translate(140 56)"><use xlink:href="#path4_fill" fill="#FFF"/><use xlink:href="#path5_stroke"/></g><g transform="translate(140 90)"><use xlink:href="#path6_fill" fill="#FFF"/><use xlink:href="#path7_stroke"/></g><use xlink:href="#path8_stroke" transform="translate(105 62)"/><use xlink:href="#path8_stroke" transform="translate(105 66)"/><use xlink:href="#path8_stroke" transform="translate(105 70)"/><use xlink:href="#path8_stroke" transform="translate(105 74)"/><use xlink:href="#path8_stroke" transform="translate(105 78)"/><use xlink:href="#path8_stroke" transform="translate(105 82)"/><use xlink:href="#path8_stroke" transform="translate(105 86)"/><use xlink:href="#path8_stroke" transform="translate(105 90)"/></g></g><defs><path id="path0_fill" d="M0 0h27v38H0V0z"/><path id="path1_stroke" d="M0 0v-1h-1v1h1zm27 0h1v-1h-1v1zm0 38v1h1v-1h-1zM0 38h-1v1h1v-1zM0 1h27v-2H0v2zm26-1v38h2V0h-2zm1 37H0v2h27v-2zM1 38V0h-2v38h2z"/><path id="path2_fill" d="M0 0h4v25H0V0z"/><path id="path3_stroke" d="M0 0v-1h-1v1h1zm4 0h1v-1H4v1zm0 25v1h1v-1H4zm-4 0h-1v1h1v-1zM0 1h4v-2H0v2zm3-1v25h2V0H3zm1 24H0v2h4v-2zm-3 1V0h-2v25h2z"/><path id="path4_fill" d="M2 2l2 5v2H0V7l2-5z"/><path id="path5_stroke" d="M4 9v1h1V9H4zM0 9h-1v1h1V9zm3-9v-1H1v1h2zM0 7l-.928477-.37139L-1 6.80742V7h1zm4 0h1v-.19258l-.07152-.17881L4 7zm0 1H0v2h4V8zM3 2V0H1v2h2zM1 9V7h-2v2h2zM.928477 7.37139l2.000003-5-1.85696-.74278-1.999997 5 1.856954.74278zm.143043-5l2 5 1.85696-.74278-2-5-1.85696.74278zM3 7v2h2V7H3z"/><path id="path6_fill" d="M0 0h4v2c0 .55228-.44772 1-1 1H1c-.552285 0-1-.44772-1-1V0z"/><path id="path7_stroke" d="M0 0v-1h-1v1h1zm4 0h1v-1H4v1zM0 1h4v-2H0v2zm3-1v2h2V0H3zm0 2H1v2h2V2zM1 2V0h-2v2h2zm0 0h-2c0 1.10457.895431 2 2 2V2zm2 0v2c1.10457 0 2-.89543 2-2H3z"/><path id="path8_stroke" d="M0 0h6v-2H0v2z"/></defs></svg>

<svg width="100" height="100" viewBox="0 0 100 100" version="1.1" xmlns="http://www.w3.org/2000/svg" xmlns:xlink="http://www.w3.org/1999/xlink"><title>dailylessons</title><desc>Created using Figma</desc><g id="Canvas" transform="matrix(2 0 0 2 -200 -100)"><clipPath id="clip-0" clip-rule="evenodd"><path d="M 0 0L 1398 0L 1398 646L 0 646L 0 0Z" fill="#FFF"/></clipPath><g id="Frame" clip-path="url(#clip-0)"><path d="M 0 0L 1398 0L 1398 646L 0 646L 0 0Z" fill="#FFF"/><g id="Rectangle"><use xlink:href="#path0_fill" transform="translate(108 56)" fill="#FFF"/><use xlink:href="#path1_stroke" transform="translate(108 56)"/></g><g id="Rectangle"><use xlink:href="#path2_fill" transform="translate(140 65)" fill="#FFF"/><use xlink:href="#path3_stroke" transform="translate(140 65)"/></g><g id="Rectangle"><use xlink:href="#path4_fill" transform="translate(140 56)" fill="#FFF"/><use xlink:href="#path5_stroke" transform="translate(140 56)"/></g><g id="Rectangle"><use xlink:href="#path6_fill" transform="translate(140 90)" fill="#FFF"/><use xlink:href="#path7_stroke" transform="translate(140 90)"/></g><g id="Line 3.8"><use xlink:href="#path8_stroke" transform="translate(105 62)"/></g><g id="Line 3.9"><use xlink:href="#path8_stroke" transform="translate(105 66)"/></g><g id="Line 3.10"><use xlink:href="#path8_stroke" transform="translate(105 70)"/></g><g id="Line 3.11"><use xlink:href="#path8_stroke" transform="translate(105 74)"/></g><g id="Line 3.12"><use xlink:href="#path8_stroke" transform="translate(105 78)"/></g><g id="Line 3.13"><use xlink:href="#path8_stroke" transform="translate(105 82)"/></g><g id="Line 3.14"><use xlink:href="#path8_stroke" transform="translate(105 86)"/></g><g id="Line 3.15"><use xlink:href="#path8_stroke" transform="translate(105 90)"/></g></g></g><defs><path id="path0_fill" d="M 0 0L 27 0L 27 38L 0 38L 0 0Z"/><path id="path1_stroke" d="M 0 0L 0 -1L -1 -1L -1 0L 0 0ZM 27 0L 28 0L 28 -1L 27 -1L 27 0ZM 27 38L 27 39L 28 39L 28 38L 27 38ZM 0 38L -1 38L -1 39L 0 39L 0 38ZM 0 1L 27 1L 27 -1L 0 -1L 0 1ZM 26 0L 26 38L 28 38L 28 0L 26 0ZM 27 37L 0 37L 0 39L 27 39L 27 37ZM 1 38L 1 0L -1 0L -1 38L 1 38Z"/><path id="path2_fill" d="M 0 0L 4 0L 4 25L 0 25L 0 0Z"/><path id="path3_stroke" d="M 0 0L 0 -1L -1 -1L -1 0L 0 0ZM 4 0L 5 0L 5 -1L 4 -1L 4 0ZM 4 25L 4 26L 5 26L 5 25L 4 25ZM 0 25L -1 25L -1 26L 0 26L 0 25ZM 0 1L 4 1L 4 -1L 0 -1L 0 1ZM 3 0L 3 25L 5 25L 5 0L 3 0ZM 4 24L 0 24L 0 26L 4 26L 4 24ZM 1 25L 1 0L -1 0L -1 25L 1 25Z"/><path id="path4_fill" d="M 2 2L 4 7L 4 9L 0 9L 0 7L 2 2Z"/><path id="path5_stroke" d="M 4 9L 4 10L 5 10L 5 9L 4 9ZM 0 9L -1 9L -1 10L 0 10L 0 9ZM 3 0L 3 -1L 1 -1L 1 0L 3 0ZM 0 7L -0.928477 6.62861L -1 6.80742L -1 7L 0 7ZM 4 7L 5 7L 5 6.80742L 4.92848 6.62861L 4 7ZM 4 8L 0 8L 0 10L 4 10L 4 8ZM 3 2L 3 0L 1 0L 1 2L 3 2ZM 1 9L 1 7L -1 7L -1 9L 1 9ZM 0.928477 7.37139L 2.92848 2.37139L 1.07152 1.62861L -0.928477 6.62861L 0.928477 7.37139ZM 1.07152 2.37139L 3.07152 7.37139L 4.92848 6.62861L 2.92848 1.62861L 1.07152 2.37139ZM 3 7L 3 9L 5 9L 5 7L 3 7Z"/><path id="path6_fill" d="M 0 0L 4 0L 4 2C 4 2.55228 3.55228 3 3 3L 1 3C 0.447715 3 0 2.55228 0 2L 0 0Z"/><path id="path7_stroke" d="M 0 0L 0 -1L -1 -1L -1 0L 0 0ZM 4 0L 5 0L 5 -1L 4 -1L 4 0ZM 0 1L 4 1L 4 -1L 0 -1L 0 1ZM 3 0L 3 2L 5 2L 5 0L 3 0ZM 3 2L 1 2L 1 4L 3 4L 3 2ZM 1 2L 1 0L -1 0L -1 2L 1 2ZM 1 2L -1 2C -1 3.10457 -0.104569 4 1 4L 1 2ZM 3 2L 3 4C 4.10457 4 5 3.10457 5 2L 3 2Z"/><path id="path8_stroke" d="M 0 0L 6 0L 6 -2L 0 -2L 0 0Z"/></defs></svg>
